icons/circle/48/distributor-logo-bodhi.svg

<svg xmlns="http://www.w3.org/2000/svg" viewBox="0 0 48 48">
 <defs>
  <linearGradient id="linearGradient3764" x1="1" x2="47" gradientUnits="userSpaceOnUse" gradientTransform="matrix(0,-1,1,0,-1.5e-6,47.999998)">
   <stop style="stop-color:#c97845;stop-opacity:1"/>
   <stop offset="1" style="stop-color:#ce8354;stop-opacity:1"/>
  </linearGradient>
 </defs>
 <g>
  <path d="m 36.31 5 c 5.859 4.062 9.688 10.831 9.688 18.5 c 0 12.426 -10.07 22.5 -22.5 22.5 c -7.669 0 -14.438 -3.828 -18.5 -9.688 c 1.037 1.822 2.306 3.499 3.781 4.969 c 4.085 3.712 9.514 5.969 15.469 5.969 c 12.703 0 23 -10.298 23 -23 c 0 -5.954 -2.256 -11.384 -5.969 -15.469 c -1.469 -1.475 -3.147 -2.744 -4.969 -3.781 z m 4.969 3.781 c 3.854 4.113 6.219 9.637 6.219 15.719 c 0 12.703 -10.297 23 -23 23 c -6.081 0 -11.606 -2.364 -15.719 -6.219 c 4.16 4.144 9.883 6.719 16.219 6.719 c 12.703 0 23 -10.298 23 -23 c 0 -6.335 -2.575 -12.06 -6.719 -16.219 z" style="opacity:0.05"/>
  <path d="m 41.28 8.781 c 3.712 4.085 5.969 9.514 5.969 15.469 c 0 12.703 -10.297 23 -23 23 c -5.954 0 -11.384 -2.256 -15.469 -5.969 c 4.113 3.854 9.637 6.219 15.719 6.219 c 12.703 0 23 -10.298 23 -23 c 0 -6.081 -2.364 -11.606 -6.219 -15.719 z" style="opacity:0.1"/>
  <path d="m 31.25 2.375 c 8.615 3.154 14.75 11.417 14.75 21.13 c 0 12.426 -10.07 22.5 -22.5 22.5 c -9.708 0 -17.971 -6.135 -21.12 -14.75 a 23 23 0 0 0 44.875 -7 a 23 23 0 0 0 -16 -21.875 z" style="opacity:0.2"/>
 </g>
 <g>
  <path d="m 24 1 c 12.703 0 23 10.297 23 23 c 0 12.703 -10.297 23 -23 23 -12.703 0 -23 -10.297 -23 -23 0 -12.703 10.297 -23 23 -23 z" style="fill:url(#linearGradient3764);fill-opacity:1"/>
 </g>
 <g>
  <path d="m 40.03 7.531 c 3.712 4.084 5.969 9.514 5.969 15.469 0 12.703 -10.297 23 -23 23 c -5.954 0 -11.384 -2.256 -15.469 -5.969 4.178 4.291 10.01 6.969 16.469 6.969 c 12.703 0 23 -10.298 23 -23 0 -6.462 -2.677 -12.291 -6.969 -16.469 z" style="opacity:0.1"/>
 </g>
 <circle r="14" cy="25" cx="25" style="fill:#000;opacity:0.1;fill-opacity:1;stroke:none"/>
 <circle cx="24" cy="24" r="14" style="fill:#f0f0f0;opacity:1;fill-opacity:1;stroke:none"/>
 <path d="m 11.481 11 a 0.519 0.518 0 0 0 -0.446 0.705 c 0.598 1.605 1.966 3.125 3.238 4.341 l 23.849 22.808 a 0.519 0.518 0 1 0 0.717 -0.749 L 14.99 15.298 c -1.223 -1.17 -2.497 -2.645 -2.983 -3.953 a 0.519 0.518 0 0 0 -0.527 -0.344 z" mix-blend-mode="normal" isolation="auto" white-space="normal" solid-opacity="1" solid-color="#000000" style="visibility:visible;shape-rendering:auto;color-interpolation-filters:linearRGB;fill:#000;opacity:0.1;image-rendering:auto;fill-opacity:1;stroke:none;display:inline;color:#000;fill-rule:evenodd;color-rendering:auto;color-interpolation:sRGB"/>
 <path d="M 13.973 14.25 A 14 14 0 0 0 13.264 15.02 C 13.597 15.379 13.937 15.725 14.273 16.05 L 16.439 18.12 C 14.596 21.72 18.64 38.516 28.06 29.23 L 33.408 34.35 A 14 14 0 0 0 34.15 33.619 L 28.771 28.479 C 36.758 19.537 20.863 15.687 17.191 17.404 L 14.99 15.299 C 14.647 14.971 14.305 14.616 13.973 14.25 z" style="fill:#000;opacity:0.1;fill-opacity:1;stroke:none"/>
 <path d="m 15.713 16.713 c 2.475 -2.475 21.336 1.536 11.436 11.436 -9.9 9.9 -13.911 -8.961 -11.436 -11.436 z" style="fill:#8aad2b;opacity:1;fill-opacity:1;stroke:none"/>
 <path d="m 10.481 10 a 0.519 0.518 0 0 0 -0.446 0.705 c 0.598 1.605 1.966 3.125 3.238 4.341 l 23.849 22.808 a 0.519 0.518 0 1 0 0.717 -0.749 L 13.99 14.298 c -1.223 -1.17 -2.497 -2.645 -2.983 -3.953 a 0.519 0.518 0 0 0 -0.527 -0.344 z" mix-blend-mode="normal" isolation="auto" white-space="normal" solid-opacity="1" solid-color="#000000" style="visibility:visible;shape-rendering:auto;color-interpolation-filters:linearRGB;fill:#c3d362;opacity:1;image-rendering:auto;fill-opacity:1;stroke:none;display:inline;color:#000;fill-rule:evenodd;color-rendering:auto;color-interpolation:sRGB"/>
</svg>

<svg xmlns="http://www.w3.org/2000/svg" viewBox="0 0 48 48">
  <defs>
    <linearGradient id="a" x1="1" x2="47" gradientUnits="userSpaceOnUse" gradientTransform="rotate(-90 24 24)">
      <stop stop-color="#c97845"/>
      <stop offset="1" stop-color="#ce8354"/>
    </linearGradient>
  </defs>
  <path d="M36.31 5c5.859 4.062 9.688 10.831 9.688 18.5 0 12.426-10.07 22.5-22.5 22.5-7.669 0-14.438-3.828-18.5-9.688a23.24 23.24 0 0 0 3.781 4.969 22.923 22.923 0 0 0 15.469 5.969c12.703 0 23-10.298 23-23a22.92 22.92 0 0 0-5.969-15.469A23.216 23.216 0 0 0 36.31 5zm4.969 3.781A22.911 22.911 0 0 1 47.498 24.5c0 12.703-10.297 23-23 23a22.909 22.909 0 0 1-15.719-6.219C12.939 45.425 18.662 48 24.998 48c12.703 0 23-10.298 23-23 0-6.335-2.575-12.06-6.719-16.219z" opacity=".05"/>
  <path d="M41.28 8.781a22.923 22.923 0 0 1 5.969 15.469c0 12.703-10.297 23-23 23A22.92 22.92 0 0 1 8.78 41.281 22.911 22.911 0 0 0 24.499 47.5c12.703 0 23-10.298 23-23A22.909 22.909 0 0 0 41.28 8.781z" opacity=".1"/>
  <path d="M31.25 2.375C39.865 5.529 46 13.792 46 23.505c0 12.426-10.07 22.5-22.5 22.5-9.708 0-17.971-6.135-21.12-14.75a23 23 0 0 0 44.875-7 23 23 0 0 0-16-21.875z" opacity=".2"/>
  <path d="M24 1c12.703 0 23 10.297 23 23S36.703 47 24 47 1 36.703 1 24 11.297 1 24 1z" fill="url(#a)"/>
  <path d="M40.03 7.531A22.922 22.922 0 0 1 45.999 23c0 12.703-10.297 23-23 23A22.92 22.92 0 0 1 7.53 40.031C11.708 44.322 17.54 47 23.999 47c12.703 0 23-10.298 23-23 0-6.462-2.677-12.291-6.969-16.469z" opacity=".1"/>
  <circle r="14" cy="25" cx="25" opacity=".1"/>
  <circle cx="24" cy="24" r="14" fill="#f0f0f0"/>
  <path d="M11.481 11a.519.518 0 0 0-.446.705c.598 1.605 1.966 3.125 3.238 4.341l23.849 22.808a.519.518 0 1 0 .717-.749L14.99 15.298c-1.223-1.17-2.497-2.645-2.983-3.953a.519.518 0 0 0-.527-.344z" white-space="normal" solid-color="#000000" opacity=".1" color="#000" fill-rule="evenodd"/>
  <path d="M13.973 14.25a14 14 0 0 0-.709.77c.333.359.673.705 1.009 1.03l2.166 2.07c-1.843 3.6 2.201 20.396 11.621 11.11l5.348 5.12a14 14 0 0 0 .742-.731l-5.379-5.14c7.987-8.942-7.908-12.792-11.58-11.075l-2.201-2.105a20.72 20.72 0 0 1-1.017-1.049z" opacity=".1"/>
  <path d="M15.713 16.713c2.475-2.475 21.336 1.536 11.436 11.436-9.9 9.9-13.911-8.961-11.436-11.436z" fill="#8aad2b"/>
  <path d="M10.481 10a.519.518 0 0 0-.446.705c.598 1.605 1.966 3.125 3.238 4.341l23.849 22.808a.519.518 0 1 0 .717-.749L13.99 14.298c-1.223-1.17-2.497-2.645-2.983-3.953a.519.518 0 0 0-.527-.344z" white-space="normal" solid-color="#000000" fill="#c3d362" color="#000" fill-rule="evenodd"/>
</svg>
